overrides/.icons/rsc/b-legacy.svg

<?xml version="1.0" encoding="UTF-8" standalone="no"?>
<svg
   viewBox="0 0 24 24"
   version="1.1"
   id="svg1"
   sodipodi:docname="bonus-action.svg"
   inkscape:version="1.3.2 (091e20e, 2023-11-25, custom)"
   xmlns:inkscape="http://www.inkscape.org/namespaces/inkscape"
   xmlns:sodipodi="http://sodipodi.sourceforge.net/DTD/sodipodi-0.dtd"
   xmlns="http://www.w3.org/2000/svg"
   xmlns:svg="http://www.w3.org/2000/svg">
  <defs
     id="defs1">
    <inkscape:path-effect
       effect="fillet_chamfer"
       id="path-effect20"
       is_visible="true"
       lpeversion="1"
       nodesatellites_param="F,0,1,1,0,0.96045054,0,1 @ F,0,1,1,0,0.96045054,0,1 @ F,0,1,1,0,0.96045054,0,1 @ F,0,0,1,0,0.96045054,0,1 @ F,0,1,1,0,0.96045054,0,1 @ F,0,1,1,0,0.96045054,0,1"
       radius="0"
       unit="px"
       method="auto"
       mode="F"
       chamfer_steps="1"
       flexible="false"
       use_knot_distance="true"
       apply_no_radius="true"
       apply_with_radius="true"
       only_selected="false"
       hide_knots="false" />
    <inkscape:path-effect
       effect="fillet_chamfer"
       id="path-effect19"
       is_visible="true"
       lpeversion="1"
       nodesatellites_param="F,0,1,1,0,0.72848831,0,1 @ F,0,1,1,0,0.72848831,0,1 @ F,0,1,1,0,0.72848831,0,1 @ F,0,1,1,0,0.72848831,0,1 @ F,0,0,1,0,0.72848831,0,1 @ F,0,1,1,0,0.72848831,0,1"
       radius="0"
       unit="px"
       method="auto"
       mode="F"
       chamfer_steps="1"
       flexible="false"
       use_knot_distance="true"
       apply_no_radius="true"
       apply_with_radius="true"
       only_selected="false"
       hide_knots="false" />
    <inkscape:path-effect
       effect="fillet_chamfer"
       id="path-effect18"
       is_visible="true"
       lpeversion="1"
       nodesatellites_param="F,0,1,1,0,0.81996708,0,1 @ F,0,1,1,0,0.81996708,0,1 @ F,0,0,1,0,0.81996708,0,1 @ F,0,1,1,0,0.81996708,0,1 @ F,0,0,1,0,0,0,1 @ F,0,1,1,0,0.81996708,0,1 @ F,0,1,1,0,0.81996708,0,1 @ F,0,1,1,0,0.81996708,0,1 @ F,0,0,1,0,0,0,1 @ F,0,1,1,0,0.81996708,0,1 @ F,0,1,1,0,0.81996708,0,1 @ F,0,1,1,0,0.81996708,0,1"
       radius="0"
       unit="px"
       method="auto"
       mode="F"
       chamfer_steps="1"
       flexible="false"
       use_knot_distance="true"
       apply_no_radius="true"
       apply_with_radius="true"
       only_selected="false"
       hide_knots="false" />
    <inkscape:path-effect
       effect="fillet_chamfer"
       id="path-effect17"
       is_visible="true"
       lpeversion="1"
       nodesatellites_param="F,0,0,1,0,0,0,1 @ F,0,0,1,0,0,0,1 @ F,0,0,1,0,0,0,1 @ F,0,0,1,0,0,0,1 @ F,0,0,1,0,0,0,1 @ F,0,0,1,0,0,0,1 @ F,0,0,1,0,0,0,1 @ F,0,0,1,0,0,0,1 @ F,0,0,1,0,0,0,1 @ F,0,0,1,0,0,0,1 @ F,0,0,1,0,0,0,1 @ F,0,0,1,0,0,0,1"
       radius="0"
       unit="px"
       method="auto"
       mode="F"
       chamfer_steps="1"
       flexible="false"
       use_knot_distance="true"
       apply_no_radius="true"
       apply_with_radius="true"
       only_selected="false"
       hide_knots="false" />
    <inkscape:path-effect
       effect="fillet_chamfer"
       id="path-effect16"
       is_visible="true"
       lpeversion="1"
       nodesatellites_param="F,0,1,1,0,1.4522319,0,1 @ F,0,1,1,0,1.4522319,0,1 @ F,0,0,1,0,1.4522319,0,1"
       radius="0"
       unit="px"
       method="auto"
       mode="F"
       chamfer_steps="1"
       flexible="false"
       use_knot_distance="true"
       apply_no_radius="true"
       apply_with_radius="true"
       only_selected="false"
       hide_knots="false" />
    <inkscape:path-effect
       effect="fillet_chamfer"
       id="path-effect1"
       is_visible="true"
       lpeversion="1"
       nodesatellites_param="F,0,0,1,0,0,0,1 @ F,0,0,1,0,0,0,1 @ F,0,0,1,0,0,0,1"
       radius="0"
       unit="px"
       method="auto"
       mode="F"
       chamfer_steps="1"
       flexible="false"
       use_knot_distance="true"
       apply_no_radius="true"
       apply_with_radius="true"
       only_selected="false"
       hide_knots="false" />
    <linearGradient
       id="swatch1"
       inkscape:swatch="solid">
      <stop
         style="stop-color:#ef5552;stop-opacity:1;"
         offset="0"
         id="stop1" />
    </linearGradient>
    <inkscape:path-effect
       effect="fillet_chamfer"
       id="path-effect15"
       is_visible="true"
       lpeversion="1"
       nodesatellites_param="F,0,0,1,0,0.48222331,0,1 @ F,0,1,1,0,0.48222331,0,1 @ F,0,1,1,0,0.48222331,0,1"
       radius="0"
       unit="px"
       method="auto"
       mode="F"
       chamfer_steps="1"
       flexible="false"
       use_knot_distance="true"
       apply_no_radius="true"
       apply_with_radius="true"
       only_selected="false"
       hide_knots="false" />
    <inkscape:path-effect
       effect="fillet_chamfer"
       id="path-effect14"
       is_visible="true"
       lpeversion="1"
       nodesatellites_param="F,0,0,1,0,0,0,1 @ F,0,0,1,0,0,0,1 @ F,0,0,1,0,0,0,1"
       radius="0"
       unit="px"
       method="auto"
       mode="F"
       chamfer_steps="1"
       flexible="false"
       use_knot_distance="true"
       apply_no_radius="true"
       apply_with_radius="true"
       only_selected="false"
       hide_knots="false" />
    <inkscape:path-effect
       effect="fillet_chamfer"
       id="path-effect13"
       is_visible="true"
       lpeversion="1"
       nodesatellites_param="F,0,1,1,0,1.0728753,0,1 @ F,0,1,1,0,1.0728753,0,1 @ F,0,1,1,0,1.0728753,0,1 @ F,0,1,1,0,1.0728753,0,1 @ F,0,0,1,0,1.0728753,0,1 @ F,0,1,1,0,1.0728753,0,1"
       radius="0"
       unit="px"
       method="auto"
       mode="F"
       chamfer_steps="1"
       flexible="false"
       use_knot_distance="true"
       apply_no_radius="true"
       apply_with_radius="true"
       only_selected="false"
       hide_knots="false" />
    <inkscape:path-effect
       effect="fillet_chamfer"
       id="path-effect12"
       is_visible="true"
       lpeversion="1"
       nodesatellites_param="F,0,0,1,0,0,0,1 @ F,0,0,1,0,0,0,1 @ F,0,0,1,0,0,0,1 @ F,0,0,1,0,0,0,1 @ F,0,0,1,0,0,0,1 @ F,0,0,1,0,0,0,1"
       radius="0"
       unit="px"
       method="auto"
       mode="F"
       chamfer_steps="1"
       flexible="false"
       use_knot_distance="true"
       apply_no_radius="true"
       apply_with_radius="true"
       only_selected="false"
       hide_knots="false" />
    <inkscape:path-effect
       effect="fillet_chamfer"
       id="path-effect11"
       is_visible="true"
       lpeversion="1"
       nodesatellites_param="F,0,0,1,0,0,0,1 @ F,0,0,1,0,0,0,1 @ F,0,0,1,0,0,0,1 @ F,0,0,1,0,0,0,1 @ F,0,0,1,0,0,0,1 @ F,0,0,1,0,0,0,1"
       radius="0"
       unit="px"
       method="auto"
       mode="F"
       chamfer_steps="1"
       flexible="false"
       use_knot_distance="true"
       apply_no_radius="true"
       apply_with_radius="true"
       only_selected="false"
       hide_knots="false" />
    <inkscape:path-effect
       effect="fillet_chamfer"
       id="path-effect10"
       is_visible="true"
       lpeversion="1"
       nodesatellites_param="F,0,0,1,0,0,0,1 @ F,0,0,1,0,0,0,1 @ F,0,0,1,0,0,0,1 @ F,0,0,1,0,0,0,1 @ F,0,0,1,0,0,0,1 @ F,0,0,1,0,0,0,1"
       radius="0"
       unit="px"
       method="auto"
       mode="F"
       chamfer_steps="1"
       flexible="false"
       use_knot_distance="true"
       apply_no_radius="true"
       apply_with_radius="true"
       only_selected="false"
       hide_knots="false" />
    <inkscape:path-effect
       effect="fillet_chamfer"
       id="path-effect9"
       is_visible="true"
       lpeversion="1"
       nodesatellites_param="F,0,0,1,0,0,0,1 @ F,0,0,1,0,0,0,1 @ F,0,0,1,0,0,0,1 @ F,0,0,1,0,0,0,1 @ F,0,0,1,0,0,0,1 @ F,0,0,1,0,0,0,1"
       radius="0"
       unit="px"
       method="auto"
       mode="F"
       chamfer_steps="1"
       flexible="false"
       use_knot_distance="true"
       apply_no_radius="true"
       apply_with_radius="true"
       only_selected="false"
       hide_knots="false" />
    <inkscape:path-effect
       effect="fillet_chamfer"
       id="path-effect8"
       is_visible="true"
       lpeversion="1"
       nodesatellites_param="F,0,0,1,0,0,0,1 @ F,0,0,1,0,0,0,1 @ F,0,0,1,0,0,0,1 @ F,0,0,1,0,0,0,1 @ F,0,0,1,0,0,0,1 @ F,0,0,1,0,0,0,1"
       radius="0"
       unit="px"
       method="auto"
       mode="F"
       chamfer_steps="1"
       flexible="false"
       use_knot_distance="true"
       apply_no_radius="true"
       apply_with_radius="true"
       only_selected="false"
       hide_knots="false" />
    <inkscape:path-effect
       effect="fillet_chamfer"
       id="path-effect7"
       is_visible="true"
       lpeversion="1"
       nodesatellites_param="F,0,0,1,0,0,0,1 @ F,0,0,1,0,0,0,1 @ F,0,0,1,0,0,0,1 @ F,0,0,1,0,0,0,1 @ F,0,0,1,0,0,0,1 @ F,0,0,1,0,0,0,1"
       radius="0"
       unit="px"
       method="auto"
       mode="F"
       chamfer_steps="1"
       flexible="false"
       use_knot_distance="true"
       apply_no_radius="true"
       apply_with_radius="true"
       only_selected="false"
       hide_knots="false" />
    <inkscape:path-effect
       effect="fillet_chamfer"
       id="path-effect6"
       is_visible="true"
       lpeversion="1"
       nodesatellites_param="F,0,0,1,0,0,0,1 @ F,0,0,1,0,0,0,1 @ F,0,0,1,0,0,0,1 @ F,0,0,1,0,0,0,1 @ F,0,0,1,0,0,0,1 @ F,0,0,1,0,0,0,1"
       radius="0"
       unit="px"
       method="auto"
       mode="F"
       chamfer_steps="1"
       flexible="false"
       use_knot_distance="true"
       apply_no_radius="true"
       apply_with_radius="true"
       only_selected="false"
       hide_knots="false" />
    <inkscape:path-effect
       effect="fillet_chamfer"
       id="path-effect5"
       is_visible="true"
       lpeversion="1"
       nodesatellites_param="F,0,0,1,0,0,0,1 @ F,0,0,1,0,0,0,1 @ F,0,0,1,0,0,0,1 @ F,0,0,1,0,0,0,1 @ F,0,0,1,0,0,0,1 @ F,0,0,1,0,0,0,1"
       radius="0"
       unit="px"
       method="auto"
       mode="F"
       chamfer_steps="1"
       flexible="false"
       use_knot_distance="true"
       apply_no_radius="true"
       apply_with_radius="true"
       only_selected="false"
       hide_knots="false" />
    <inkscape:path-effect
       effect="fillet_chamfer"
       id="path-effect4"
       is_visible="true"
       lpeversion="1"
       nodesatellites_param="F,0,0,1,0,0,0,1 @ F,0,0,1,0,0,0,1 @ F,0,0,1,0,0,0,1 @ F,0,0,1,0,0,0,1 @ F,0,0,1,0,1.1276705,0,1 @ F,0,0,1,0,1.2418038,0,1"
       radius="0"
       unit="px"
       method="auto"
       mode="F"
       chamfer_steps="1"
       flexible="false"
       use_knot_distance="true"
       apply_no_radius="true"
       apply_with_radius="true"
       only_selected="false"
       hide_knots="false" />
    <inkscape:path-effect
       effect="fillet_chamfer"
       id="path-effect3"
       is_visible="true"
       lpeversion="1"
       nodesatellites_param="F,0,0,1,0,0,0,1 @ F,0,0,1,0,0,0,1 @ F,0,0,1,0,0,0,1 @ F,0,0,1,0,0,0,1 @ F,0,0,1,0,0,0,1 @ F,0,0,1,0,0,0,1"
       radius="0"
       unit="px"
       method="auto"
       mode="F"
       chamfer_steps="1"
       flexible="false"
       use_knot_distance="true"
       apply_no_radius="true"
       apply_with_radius="true"
       only_selected="false"
       hide_knots="false" />
    <inkscape:path-effect
       effect="fillet_chamfer"
       id="path-effect2"
       is_visible="true"
       lpeversion="1"
       nodesatellites_param="F,0,0,1,0,0,0,1 @ F,0,0,1,0,0,0,1 @ F,0,0,1,0,0,0,1 @ F,0,0,1,0,0,0,1 @ F,0,0,1,0,0,0,1 @ F,0,0,1,0,0,0,1"
       radius="0"
       unit="px"
       method="auto"
       mode="F"
       chamfer_steps="1"
       flexible="false"
       use_knot_distance="true"
       apply_no_radius="true"
       apply_with_radius="true"
       only_selected="false"
       hide_knots="false" />
    <inkscape:path-effect
       effect="fillet_chamfer"
       id="path-effect19-4"
       is_visible="true"
       lpeversion="1"
       nodesatellites_param="F,0,1,1,0,0.72848831,0,1 @ F,0,1,1,0,0.72848831,0,1 @ F,0,1,1,0,0.72848831,0,1 @ F,0,1,1,0,0.72848831,0,1 @ F,0,0,1,0,0.72848831,0,1 @ F,0,1,1,0,0.72848831,0,1"
       radius="0"
       unit="px"
       method="auto"
       mode="F"
       chamfer_steps="1"
       flexible="false"
       use_knot_distance="true"
       apply_no_radius="true"
       apply_with_radius="true"
       only_selected="false"
       hide_knots="false" />
    <inkscape:path-effect
       effect="fillet_chamfer"
       id="path-effect20-2"
       is_visible="true"
       lpeversion="1"
       nodesatellites_param="F,0,1,1,0,0.96045054,0,1 @ F,0,1,1,0,0.96045054,0,1 @ F,0,1,1,0,0.96045054,0,1 @ F,0,0,1,0,0.96045054,0,1 @ F,0,1,1,0,0.96045054,0,1 @ F,0,1,1,0,0.96045054,0,1"
       radius="0"
       unit="px"
       method="auto"
       mode="F"
       chamfer_steps="1"
       flexible="false"
       use_knot_distance="true"
       apply_no_radius="true"
       apply_with_radius="true"
       only_selected="false"
       hide_knots="false" />
  </defs>
  <sodipodi:namedview
     id="namedview1"
     pagecolor="#ffffff"
     bordercolor="#666666"
     borderopacity="1.0"
     inkscape:showpageshadow="2"
     inkscape:pageopacity="0.0"
     inkscape:pagecheckerboard="0"
     inkscape:deskcolor="#d1d1d1"
     inkscape:zoom="11.770382"
     inkscape:cx="18.8609"
     inkscape:cy="15.674937"
     inkscape:window-width="1360"
     inkscape:window-height="715"
     inkscape:window-x="-8"
     inkscape:window-y="-8"
     inkscape:window-maximized="1"
     inkscape:current-layer="svg1" />
  <g
     id="g20">
    <path
       id="rect9-85"
       style="fill-opacity:1;stroke:none;stroke-width:2.05121;stroke-dasharray:none;stroke-dashoffset:2.76;stroke-opacity:1;paint-order:stroke markers fill"
       d="M 21.724238,1.7655925 15.001747,4.0671274 A 1.1474178,1.1474178 125.55034 0 0 14.225985,5.152687 V 6.4807322 A 0.81996708,0.81996708 135 0 1 13.406018,7.3006993 H 8.1206664 A 0.81996708,0.81996708 135 0 0 7.3006993,8.1206664 V 14.225985 H 5.152687 a 1.1474178,1.1474178 144.44966 0 0 -1.0855596,0.775762 l -2.3015349,6.722491 a 0.40170968,0.40170968 45 0 0 0.5101695,0.51017 l 6.7224915,-2.301536 a 1.1474178,1.1474178 125.55034 0 0 0.775762,-1.085559 v -2.148012 h 6.1053185 a 0.81996708,0.81996708 135 0 0 0.819967,-0.819967 v -5.285351 a 0.81996708,0.81996708 135 0 1 0.819967,-0.8199675 h 1.328045 a 1.1474178,1.1474178 144.44966 0 0 1.085559,-0.775762 L 22.234408,2.275762 a 0.40170968,0.40170968 45 0 0 -0.51017,-0.5101695 z"
       inkscape:path-effect="#path-effect18"
       inkscape:original-d="M 22.5,1.5 14.225985,4.3327199 V 7.3006993 H 7.3006993 V 14.225985 H 4.3327199 L 1.5,22.5 9.7740155,19.66728 V 16.699301 H 16.699301 V 9.7740155 h 2.967979 z"
       transform="matrix(0.97503292,0,0,0.97503292,0.29960496,0.29960496)" />
    <path
       id="rect1"
       style="stroke-width:5.625;stroke-linecap:round;stroke-linejoin:round;paint-order:fill markers stroke"
       d="m -13.22486,-9.5962285 v 8.0790987 a 0.96045054,0.96045054 45 0 0 0.960451,0.96045054 h 2.079098 a 0.96045054,0.96045054 135 0 0 0.9604509,-0.96045054 v -4.079099 a 0.96045054,0.96045054 135 0 1 0.9604505,-0.9604505 h 4.079099 a 0.96045054,0.96045054 135 0 0 0.9604505,-0.9604505 v -2.0790987 a 0.96045054,0.96045054 45 0 0 -0.9604505,-0.9604505 l -8.0790984,0 a 0.96045054,0.96045054 135 0 0 -0.960451,0.9604505 z"
       inkscape:path-effect="#path-effect20"
       inkscape:original-d="m -13.22486,-10.556679 v 9.99999974 h 3.9999999 V -6.5566793 h 6 v -3.9999997 z"
       transform="matrix(0.80000001,0,0,0.80000001,12.579888,10.445343)" />
    <path
       id="rect1-9"
       style="stroke-width:5.625;stroke-linecap:round;stroke-linejoin:round;paint-order:fill markers stroke"
       d="m -13.22486,-9.5962285 v 8.0790987 a 0.96045054,0.96045054 45 0 0 0.960451,0.96045054 h 2.079098 a 0.96045054,0.96045054 135 0 0 0.9604509,-0.96045054 v -4.079099 a 0.96045054,0.96045054 135 0 1 0.9604505,-0.9604505 h 4.079099 a 0.96045054,0.96045054 135 0 0 0.9604505,-0.9604505 v -2.0790987 a 0.96045054,0.96045054 45 0 0 -0.9604505,-0.9604505 l -8.0790984,0 a 0.96045054,0.96045054 135 0 0 -0.960451,0.9604505 z"
       inkscape:path-effect="#path-effect20-2"
       inkscape:original-d="m -13.22486,-10.556679 v 9.99999974 h 3.9999999 V -6.5566793 h 6 v -3.9999997 z"
       transform="matrix(-0.80000001,0,0,-0.80000001,11.420112,13.554657)" />
  </g>
</svg>

<?xml version="1.0" encoding="UTF-8"?>
<svg id="svg1" version="1.1" viewBox="0 0 24 24" xmlns="http://www.w3.org/2000/svg">
 <g id="g20">
  <path id="rect9-85" transform="matrix(.97503 0 0 .97503 .2996 .2996)" d="m21.724 1.7656-6.7225 2.3015a1.1474 1.1474 125.55 0 0-0.77576 1.0856v1.328a0.81997 0.81997 135 0 1-0.81997 0.81997h-5.2854a0.81997 0.81997 135 0 0-0.81997 0.81997v6.1053h-2.148a1.1474 1.1474 144.45 0 0-1.0856 0.77576l-2.3015 6.7225a0.40171 0.40171 45 0 0 0.51017 0.51017l6.7225-2.3015a1.1474 1.1474 125.55 0 0 0.77576-1.0856v-2.148h6.1053a0.81997 0.81997 135 0 0 0.81997-0.81997v-5.2854a0.81997 0.81997 135 0 1 0.81997-0.81997h1.328a1.1474 1.1474 144.45 0 0 1.0856-0.77576l2.3015-6.7225a0.40171 0.40171 45 0 0-0.51017-0.51017z" style="paint-order:stroke markers fill"/>
  <path id="rect1" transform="matrix(.8 0 0 .8 12.58 10.445)" d="m-13.225-9.5962v8.0791a0.96045 0.96045 45 0 0 0.96045 0.96045h2.0791a0.96045 0.96045 135 0 0 0.96045-0.96045v-4.0791a0.96045 0.96045 135 0 1 0.96045-0.96045h4.0791a0.96045 0.96045 135 0 0 0.96045-0.96045v-2.0791a0.96045 0.96045 45 0 0-0.96045-0.96045h-8.0791a0.96045 0.96045 135 0 0-0.96045 0.96045z" stroke-linecap="round" stroke-linejoin="round" stroke-width="5.625" style="paint-order:fill markers stroke"/>
  <path id="rect1-9" transform="matrix(-.8 0 0 -.8 11.42 13.555)" d="m-13.225-9.5962v8.0791a0.96045 0.96045 45 0 0 0.96045 0.96045h2.0791a0.96045 0.96045 135 0 0 0.96045-0.96045v-4.0791a0.96045 0.96045 135 0 1 0.96045-0.96045h4.0791a0.96045 0.96045 135 0 0 0.96045-0.96045v-2.0791a0.96045 0.96045 45 0 0-0.96045-0.96045h-8.0791a0.96045 0.96045 135 0 0-0.96045 0.96045z" stroke-linecap="round" stroke-linejoin="round" stroke-width="5.625" style="paint-order:fill markers stroke"/>
 </g>
</svg>
